X:1
T:Title
%%score { ( 1 3 ) | ( 2 4 ) }
L:1/8
M:6/8
K:F
V:1 treble nm="Grand Piano"
V:3 treble 
V:2 bass 
V:4 bass 
V:1
 z3 z2[Q:1/4=90] F/G/ | A>AA [FB]2 [FB] | [Ec] [EG]2- [EG]2 [EA]/[EG]/ | [DF]2 [DF] [DF]2 [DF] | %4
[M:5/8] F- F3 z |[M:1/8] F/G/ |[M:3/4] A>A A [FB]2 [FB] | [Ec][EG]- [EG]3 [EG]/[EG]/ | %8
 [CFA]2 [DFB] [CFA]2 [B,EG] |[M:5/8] [A,F]- [A,F]3 z |[M:1/8] [FA]/[F=B]/ | %11
[M:3/4] [Ec]>[Ec] [Gc] d2 d | e[Ec]- [Ec]3 [Ec]/[Fd]/ | [Ge]2 [Ec] d2 =B |[M:5/8] [Ec]- [Ec]3 z | %15
[M:1/8] A/B/ |[M:3/4] z2 z ._e3 | d[B,DB]- [B,DB]3 [DF]/[^CFG]/ | [CFA]2 [DFB] [CEA]2 G | %19
[M:5/8] F- F3 z |[M:1/8] c/c/ |[M:3/4] c3 A z c/c/ | c3 A z F/F/ | d2 .c2 EA |[M:3/8] [EG]3 | %25
 [Ec]2 [Ec] |[M:3/4] c2 A B2 c | [Dc] [DB]2 [Fe]2 [Fd] | [Fc] [FA]2 G2 G |[M:5/8] F- F3 z |] %30
V:2
 z3 z2 [F,A,]/[F,B,F]/ | [F,CF]>[F,CF][F,CF] [D,B,]2 [D,F,] | [C,G,] [C,C]2- [C,C]2 [C,C]/[C,B,]/ | %3
 [D,A,]2 [D,A,] [B,,B,]2 [B,,B,] |[M:5/8] [F,A,C]- [F,A,C]3 z |[M:1/8] [F,A,C]/[F,B,C]/ | %6
[M:3/4] [F,CF]>[F,CF] [F,CF] [D,B,]2 [D,F,] | [C,G,][C,C]- [C,C]3 [C,C]/[C,C]/ | F,2 B,, C,2 C, | %9
[M:5/8] F,- F,3 z |[M:1/8] F,/[D,G,]/ |[M:3/4] [C,G,]>[C,G,] [E,C][K:treble] [G,=B,G]2 [G,B,G] | %12
 [CG][K:bass][C,G,]- [C,G,]3 [C,C]/[C,C]/ | [C,C]2 [C,C][K:treble] [G,=B,F]2 [G,D] | %14
[M:5/8][K:bass] [C,G,]- [C,G,]3 z |[M:1/8] [F,F]/[F,G,F]/ |[M:3/4] z2 z .F3[K:treble] | %17
 [B,F][K:bass]B,,- B,,3 B,,/B,,/ | C,2 C, C,2 [C,B,C] |[M:5/8] [F,A,C]- [F,A,C]3 z | %20
[M:1/8] [F,A,F]/[F,A,F]/ |[M:3/4][K:treble] [F,A,F]3 [F,CF] z [F,A,F]/[F,A,F]/ | %22
 [F,A,F]3 [F,CF] z [A,C]/[A,C]/ | z2 z F z2[K:bass] |[M:3/8] [C,C]3 | [C,G,]2 [C,B,] | %26
[M:3/4] [F,A,F]2 [F,F] [F,G,F]2 [F,A,_E] | [B,,B,] [B,,F,]2 [=B,,_A,]2 [B,,A,] | %28
 [C,A,] [C,C]2 [C,B,C]2 [C,B,C] |[M:5/8] [F,A,C]- [F,A,C]3 z |] %30
V:3
 x6 | x6 | x6 | x6 |[M:5/8] x5 |[M:1/8] x |[M:3/4] x6 | x6 | x6 |[M:5/8] x5 |[M:1/8] x | %11
[M:3/4] x6 | x6 | x6 |[M:5/8] x5 |[M:1/8] x |[M:3/4] c>c .c2 B,_e | x6 | x6 |[M:5/8] x5 | %20
[M:1/8] x |[M:3/4] x6 | x6 | z2 z .B3 |[M:3/8] x3 | x3 |[M:3/4] x6 | x6 | x6 |[M:5/8] x5 |] %30
V:4
 x6 | x6 | x6 | x6 |[M:5/8] x5 |[M:1/8] x |[M:3/4] x6 | x6 | x6 |[M:5/8] x5 |[M:1/8] x | %11
[M:3/4] x3[K:treble] x3 | x[K:bass] x5 | x3[K:treble] x3 |[M:5/8][K:bass] x5 |[M:1/8] x | %16
[M:3/4] [F,A,F]>[F,A,F] [F,A,F][F,A,] G,[K:treble][A,CF] | x[K:bass] x5 | x6 |[M:5/8] x5 | %20
[M:1/8] x |[M:3/4][K:treble] x6 | x6 | [B,F]2 [A,CF] [G,C]2[K:bass] [F,CF] |[M:3/8] x3 | x3 | %26
[M:3/4] x6 | x6 | x6 |[M:5/8] x5 |] %30

